X:1
T:Schule fuer die Gitarre - Uebungsstuecke
T:No 4 - Andantino
T:No 4 - Andantino
T:Schule für die Gitarre - Übungsstücke
T:Johann Kaspar Mertz (1806-1856)
T:		
C:Johann Kaspar Mertz (1806-1856)
Z:
%%score ( 1 2 3 )
L:1/8
Q:1/4=94
M:4/4
K:C
V:1 treble-8 nm="Klassische Gitarre"
V:2 treble-8 
V:3 treble-8 
V:1
"^Andantino" !>!!4!a2!>(! !4!g!1!f e!3!d!1!cB!>)! |"Dm" !2!A2 !4!!1![df]2"Am" !2!!1![Ace]2 z2 | %2
 !>!!4!a2 !4!gf edcB |"Dm" !1!A2 !1!!3![Ad]2"E" !1![^GBe]2 z2 | !>!a2 gf edcB | %5
 A2"G" !4![GBg]!1!f"C" !1![Gce]2 z2 | (3!1![Ae]!3!de !>!!4!g>!2!f !1!c2 Bc | %7
"Em" !4!e2 !1!d2"C" c2 z2 | B!1!c !4!d2 z4 | !4!de !2!f2 !>!!2!f2 e2 | (!1!fe)!4!dc Be!2!Ae | %11
 !1!^GeEe DeB,e | !>!a2 gf edcB |"Dm" !2!A2 !4!!1![df]2"Am" !2!!1![Ace]2 z2 | %14
 !>!!1!a2 !4!g!2!f !0!e"^rit. . . . . . . . . . . . . . . . . . . . . ." !4!d!1!cB | %15
 !1!c2 !1![^GB]2 !3!A2 z2 |] %16
V:2
 !stemless!A,8 | z2 D2 A,2 z2 | !stemless!A,8 | z2 !2!F2 !2!E2 z2 | !stemless!A,8 | %5
 z2 G,2 !3!C2 z2 | !2!F2 D2 G2 z2 | !1!!3!!2![G,GB]4 [CEG]2 z2 | z4 !>!!3!=F2 !2!E2 | %9
 z4 !1![E,^GB]4 | !stemless!E,4 B2 A2 | ^G2 !2!E2 D2 B,2 | !stemless!A,8 | z2 D2 A,2 z2 | %14
 A,4 z D E!3!F | !2!E2 E,2 A,2 z2 |] %16
V:3
 x8 | x8 | x8 | x8 | x8 | x8 | x8 | x8 | x8 | x8 | x8 | E,8 | x8 | x8 | x8 | x8 |] %16

